X:1
T:Simple Mass
T:Antonio Lotti (1667(?) - 1740)
T:Simple Mass
T:Kyrie
C:Antonio Lotti
C:(1667(?) - 1740)
%%score [ 1 2 3 4 ]
L:1/8
M:4/4
K:F
V:1 treble nm="S"
V:2 treble nm="A"
V:3 treble-8 transpose=-12 nm="T"
V:4 bass nm="B"
V:1
 z8 | z8 | z8 | z8 |!p! A3 A A2 A2 | B3 B A2 d2 | d2 c2 B3 B | A6 GF | E2 F2 E3 E | ^F8 || z8 | %11
w: ||||Ky- ri- e e-|le- i- son, e-|le- * * i-|son, e- *|le- * * i-|son.||
 z8 | z8 |!mf! z2 A2 A2 A2 | B3 A B2 c2 | d2 cB A2 G2 | F6 F2 | E8 || z8 | z4!p! d3 c | %20
w: ||Chri- ste e-|le- i- son, e-|le- i- * son, e-|le- i-|son.||Ky- ri-|
 B2 d2 G2 B2 | A6 GF | E4 F2 ED | E6 E2 | ^F8 |] %25
w: e e- le- i-|son, e- *|le- * * *|* i-|son.|
V:2
 z8 | z8 |!p! z8 | D3 D D2 D2 | F3 F E2 A2- | A2 G4 F2 | G2 A4 G2- | G2 FE F2 ED | ^C2 D4 C2 | %9
w: |||Ky- ri- e e-|le- i- son, e-|* le- i-|son, e- le-||* * i-|
 D8 ||!mf! z2 A2 A2 A2 | G3 F G2 E2 | F3 E F2 ED | E3 D E3 F | G4 z2 G2 | A3 G F2 E2 | E2 D^C D4- | %17
w: son.|Chri- ste e-|le- i- son, e-|le- * * * *|* * * i-|son, e-|le- * * *||
 D2 ^C=B, C4 ||!p! z8 | A3 G F2 A2 | D6 G2- | G2 FE F2 ED | ^C4 D4- | D2 ^C=B, C3 C | D8 |] %25
w: * i- * son.||Ky- ri- e e-|le- *|* * * * i- *|son, e-|* * * le- i-|son.|
V:3
!p! A3 A A2 A2 | B3 B A2 d2 | d2 c2 B3 B | A3 B A2 B2 | A2 d2 ^c2 d2 | d6 A2 | e6 e2 | e4 A4 | %8
w: Ky- ri- e e-|le- i- son, e-|le- * * i-|son, e- le- i-|son, e- le- i-|son, e-|le- i-|son, e-|
 A6 A2 | A8 ||!mf! z2 A2 A2 A2 | B3 A B2 c2 | d3 ^c d2 c=B | ^c3 =B c2 c2 | d6 e2 | A6 A2 | A4 A4 | %17
w: le- i-|son.|Chri- ste e-|le- i- son, e-|le- * * * *|* i- son, e-|le- i-|son, e-|le- i-|
!p! A8 || e3 d ^c2 e2 | A2 ^c2 d4- | d2 B2 d2 ^cd | e2 e2 A4- | A4 A4 | A6 A2 | A8 |] %25
w: son.|Ky- ri- e e-|le- * *||* i- son,|* e-|le- i-|son.|
V:4
 z4!p! D,3 D, | D,2 D,2 F,3 F, | E,2 A,2 A,2 G,2 | F,2 F,2 F,2 G,2 | D,E,F,G, A,2 F,2 | %5
w: Ky- ri-|e e- le- i-|son, e- le- i-|son, e- le- i-|son, * * * * e-|
 G,3 G, D,2 F,2 | E,8 | ^C,4 D,4 | A,,6 A,,2 | D,8 || z8 | z8 | z8 |!mf! z2 A,2 A,2 A,2 | %14
w: le- i- son, e-|le-||* i-|son.||||Chri- ste e-|
 G,3 F, G,2 E,2 | F,3 G, A,2 ^C,2 | D,6 D,2 | A,,8 || z4!p! A,3 G, | F,2 A,2 D,2 F,2 | %20
w: le- i- son, e-|le- i- son, e-|le- i-|son.|Ky- ri-|e e- le- i-|
 G,4- G,F,E,D, | ^C,4 D,4 | A,,8- | A,,6 A,,2 | D,8 |] %25
w: son, * * * *|* e-|le-|* i-|son.|

